COLOR/categories 16/16/gnome-settings.svg

<svg height="16" width="15.999999" xmlns="http://www.w3.org/2000/svg"><g transform="translate(.000561)"><path d="m4.5547477.5c-3.6766038 0-4.0721988.30898425-4.0541825 3.3233128v4.1766873 4.1766949c-.018073 3.014321.3775787 3.323305 4.0541825 3.323305h6.8910693c3.676597 0 4.054183-.308942 4.054183-3.323305v-4.1766949-4.1766873c0-3.01435714-.377594-3.3233128-4.05419-3.3233128z" fill="#ededed"/><path d="m4.5546875.5c-3.6766038 0-4.0727038.3098902-4.0546875 3.3242188v.5c-.0180163-3.0143287.3780837-3.3242188 4.0546875-3.3242188h6.8906245c3.676597 0 4.054688.3098617 4.054688 3.3242188v-.5c0-3.01435719-.378091-3.3242188-4.054688-3.3242188z" fill="#fff" opacity=".3"/><path d="m11.444751 15.5c3.676604 0 4.072704-.30989 4.054688-3.324219v-.5c.018016 3.014329-.378084 3.324219-4.054688 3.324219h-6.8906242c-3.67659703 0-4.05468803-.309862-4.05468803-3.324219v.5c0 3.014357.378091 3.324219 4.05468803 3.324219z" opacity=".2"/></g><g enable-background="new" transform="matrix(.0625 0 0 .06495557 -15.647332 -.095624)"><g enable-background="new"><rect fill="#924d8b" height="73.016451" rx="37.636684" ry="35.172624" width="159.999996" x="298.362482" y="47.657664"/><rect fill="#050505" height="64.999998" opacity=".2" rx="32.141846" ry="32.498447" width="64.999998" x="385.491333" y="55.532694"/><rect fill="#f8f7f7" height="64.999998" rx="32.141846" ry="32.498447" width="64.999998" x="385.491333" y="51.66594"/></g><rect fill="#ccc" height="73.016451" rx="37.636684" ry="35.172624" width="159.999996" x="298.362482" y="128.210715"/><rect fill="#050505" height="64.999998" opacity=".2" rx="32.141846" ry="32.498447" width="64.999998" x="307.061961" y="136.609057"/><rect fill="#f8f7f7" height="64.999998" rx="32.141846" ry="32.498447" width="64.999998" x="307.061961" y="132.218991"/></g></svg>

<?xml version="1.0" encoding="UTF-8" standalone="no"?>
<svg
   xmlns:dc="http://purl.org/dc/elements/1.1/"
   xmlns:cc="http://creativecommons.org/ns#"
   xmlns:rdf="http://www.w3.org/1999/02/22-rdf-syntax-ns#"
   xmlns:svg="http://www.w3.org/2000/svg"
   xmlns="http://www.w3.org/2000/svg"
   xmlns:sodipodi="http://sodipodi.sourceforge.net/DTD/sodipodi-0.dtd"
   xmlns:inkscape="http://www.inkscape.org/namespaces/inkscape"
   height="16"
   width="15.999999"
   version="1.1"
   id="svg22"
   sodipodi:docname="gnome-settings.svg"
   inkscape:version="0.92.4 (5da689c313, 2019-01-14)">
  <metadata
     id="metadata28">
    <rdf:RDF>
      <cc:Work
         rdf:about="">
        <dc:format>image/svg+xml</dc:format>
        <dc:type
           rdf:resource="http://purl.org/dc/dcmitype/StillImage" />
      </cc:Work>
    </rdf:RDF>
  </metadata>
  <defs
     id="defs26" />
  <sodipodi:namedview
     pagecolor="#ffffff"
     bordercolor="#666666"
     borderopacity="1"
     objecttolerance="10"
     gridtolerance="10"
     guidetolerance="10"
     inkscape:pageopacity="0"
     inkscape:pageshadow="2"
     inkscape:window-width="1920"
     inkscape:window-height="1016"
     id="namedview24"
     showgrid="false"
     inkscape:zoom="24.579294"
     inkscape:cx="-9.0737975"
     inkscape:cy="-1.607896"
     inkscape:window-x="0"
     inkscape:window-y="27"
     inkscape:window-maximized="1"
     inkscape:current-layer="g855" />
  <g
     id="g855"
     transform="translate(5.6125532e-4)">
    <path
       id="path835"
       d="M 4.5547477,0.5 C 0.8781439,0.5 0.4825489,0.80898425 0.5005652,3.8233128 V 8.0000001 12.176695 C 0.4824922,15.191016 0.8781439,15.5 4.5547477,15.5 H 11.445817 C 15.122414,15.5 15.5,15.191058 15.5,12.176695 V 8.0000001 3.8233128 C 15.5,0.80895566 15.122406,0.5 11.44581,0.5 Z"
       inkscape:connector-curvature="0"
       style="fill:#ededed;fill-opacity:1" />
    <path
       id="path839"
       d="M 4.5546875,0.5 C 0.8780837,0.5 0.4819837,0.8098902 0.5,3.8242188 v 0.5 C 0.4819837,1.3098901 0.8780837,1 4.5546875,1 H 11.445312 C 15.121909,1 15.5,1.3098617 15.5,4.3242188 v -0.5 C 15.5,0.80986161 15.121909,0.5 11.445312,0.5 Z"
       inkscape:connector-curvature="0"
       style="opacity:0.3;fill:#ffffff" />
    <path
       id="path841"
       d="m 11.444751,15.5 c 3.676604,0 4.072704,-0.30989 4.054688,-3.324219 v -0.5 C 15.517455,14.69011 15.121355,15 11.444751,15 H 4.5541268 C 0.87752977,15 0.49943877,14.690138 0.49943877,11.675781 v 0.5 c 0,3.014357 0.378091,3.324219 4.05468803,3.324219 z"
       inkscape:connector-curvature="0"
       style="opacity:0.2" />
  </g>
  <g
     enable-background="new"
     stroke="none"
     transform="matrix(.0625 0 0 .06495557 -15.647332 -.095624)"
     id="g18">
    <g
       enable-background="new"
       id="g10">
      <rect
         fill="#924d8b"
         height="73.01645125573"
         rx="37.63668444321"
         ry="35.1726243925"
         width="159.99999600323"
         x="298.36248199488"
         y="47.65766406671"
         id="rect4" />
      <rect
         fill="#050505"
         height="64.99999804896"
         opacity=".2"
         rx="32.14184617327"
         ry="32.4984469316"
         width="64.99999804896"
         x="385.4913333632"
         y="55.53269350369"
         id="rect6" />
      <rect
         fill="#f8f7f7"
         height="64.99999804896"
         rx="32.14184617327"
         ry="32.4984469316"
         width="64.99999804896"
         x="385.4913333632"
         y="51.66593955491"
         id="rect8" />
    </g>
    <rect
       fill="#ccc"
       height="73.01645125573"
       rx="37.63668444321"
       ry="35.1726243925"
       width="159.99999600323"
       x="298.36248199488"
       y="128.21071518517"
       id="rect12" />
    <rect
       fill="#050505"
       height="64.99999804896"
       opacity=".2"
       rx="32.14184617327"
       ry="32.4984469316"
       width="64.99999804896"
       x="307.06196082038"
       y="136.60905656672"
       id="rect14" />
    <rect
       fill="#f8f7f7"
       height="64.99999804896"
       rx="32.14184617327"
       ry="32.4984469316"
       width="64.99999804896"
       x="307.06196082038"
       y="132.21899067337"
       id="rect16" />
  </g>
</svg>
